source/svgs/bowtie/uEA8C-file-stack.svg

<svg xmlns="http://www.w3.org/2000/svg" viewBox="0 0 448 448" enable-background="new 0 0 448 448"><path d="M321.063 0h-225.063v64h-64v384h320v-64h64v-290.359l-94.937-93.641zm-1.063 416h-256v-320h160v96h96v224zm-64-308.104l52.83 52.104h-52.83v-52.104zm128 244.104h-32v-194.359l-94.937-93.641h-129.063v-32h179.938l76.062 75.016v244.984z"/></svg>

<svg xmlns="http://www.w3.org/2000/svg" viewBox="0 0 448 448"><path d="M321.063 0H96v64H32v384h320v-64h64V93.641L321.063 0zM320 416H64V96h160v96h96v224zm-64-308.104L308.83 160H256v-52.104zM384 352h-32V157.641L257.063 64H128V32h179.938L384 107.016V352z"/></svg>
